X:1
T:Dolcissimo sospiro
T:Dolcissimo sospiro
T:Giulio Caccini
T:Source : Le nuove Musische di G.Caccini detto Romano---Firenze---G.Marescotti---1601 Editor : André Vierendeels (21/06/15).
T:Notes : Original clefs : C1, F4 Figures in BC are notated in original prin Lyrics by Ottavio Rinuncini
C:Giulio Caccini
%%score 1 2
L:1/8
Q:1/4=120
M:2/2
K:C
V:1 treble nm="Soprano" snm="S"
V:2 bass nm="BC" snm="BC"
V:1
 G8 | B6 B2 | d6 c2 | B2 c<A B<A B<G | A8 | d2 AA A2 E2 | G2 E2 B2 AG | ^F4 c2 BA | G4 B2 AG | %9
w: Dol-|cis- si-|mo so-|spi- * * * * * *|ro|ch'es- ci da quel- la|boc- ca o- ve d'a-|mor,- o- ve d'a-|mor o- gni dol-|
 ^F2 F2 G/>A/G/>A/ B/>c/B/>c/ | d4- d/c/B c/A/B/G/ | A8 | G8 | B8- | B4 z2 d2 | E3 E E2 ^F2 | %16
w: cez- za fioc- * * * * * * *|||ca|deh,|_ deh|vien- ne'a rad- dol-|
 G4 A2 A2 | d8- | d4 c4 | B8- | B4 A4 | G>A B2 c/A/A B/G/G | A8 | A2 ^FF G4- | G4 ^F/E/E F/D/D | %25
w: ci- re l'a-|ma-|* ro|mio|_ do-|lo- * * * * * * * *|re,|ec- co ch'io t'a|_ pr'il _ _ _ _ _|
 E8 | D8 | d6 BB | c6 B2 | A8 | G8 | G8 | z4 c4 | A3 A B2 G2 | A2 d2 c2 c2 | B8 | A2 E2 A2 E2 | %37
w: co-|re,|ec- co ch'io|t'a pro'il|co-|re,|ma,|ma|fol- le'a chi ri|di- co'il mio mar-|ti-|re ad' un so-|
 ^F2 G2 A4 | G2 D2 G2 D2 | E2 E2 ^F2 A2 | ^F2 B2 G4 | A2 A2 d2 A2 | B2 G2 A2 d2 | B>c B>c d4- | %44
w: spi- ro'er- ran-|te che for- se|vo- la'in sen ad|al- tro'a- man-|te, che for- se|vo- la'in sen ad|al- * * * *|
 d2 A2 A4 | G2 D2 G2 D2 | E2 E2 ^F2 A2 | ^F2 B2 G4 | A2 A2 d2 A2 | B2 G2 A2 d2 | B2 c2 d4- | %51
w: * tro'a- man-|te, che for- se|vo- la'in sen ad|al- tro'a- man-|te, che for- se|vo- la'in sen z-|ad al- tro'a-|
 d c/B/ A/B/G/A/ ^F/D/E/F/ G/A/B/c/ | d/c/d/e/ d/e/d/c/ B/c/d/B/ c/A/B/G/ | A8 | G8 |] %55
w: * man- * * * * * * * * * * * * *|||te.|
V:2
 G,,8 | G,,4 G,4 | B,,4 ^F,,4 | G,,4 G,4 | D,8 |"^-natural" D,4 A,,4 |"^-natural""^6" E,4 B,,4 | %7
 D,2 C,B,, A,,4 |"^-natural""^6" E,2 D,C, B,,4 | D,4 G,4 |"^#10""^11" B,,2 C,2 D,2 D,2 | %11
"^11""^#10" D,4 D,,4 | G,,8 | G,8 |"^-natural""^6" E,4 B,,4 |"^-natural" C,4 A,,2 D,2 | G,,4 D,4 | %17
 D,,4 D,4 | G,8 | G,4 ^F,4 |"^7" E,8 |"^7""^#6" E,6 E,2 | D,4 D,,4 |"^6" D,4 B,,2 B,,B,, | %24
"^6" ^C,4 D,4 |"^11""^#10" A,,4 A,,4 | D,,8 | D,4 G,4 | E,2 E,2 ^F,2 G,2 |"^11""^#10" D,4 D,4 | %30
 G,,8 | C,8 | z4 A,,4 | D,4 G,,2 G,2 | D,4 A,,4 |"^11""^#10" E,4 E,4 | A,,6 A,,2 | %37
"^11   10" D,2 B,,2 D,2 D,2 | G,,6 G,,2 |"^-natural" C,2 A,,2 D,4 | %40
"^6    7     #6" D,2 B,,2 E,2 E,2 | D,6 D,2 | G,2 E,2 ^F,2 D,2 |"^6" G,4 B,,2 C,2 | %44
"^#10""^9""^11""^#10" D,2 D,2 D,2 D,2 | G,,6 G,,2 | C,2 A,,2 D,4 |"^6""^7""^#6" D,2 B,,2 E,2 E,2 | %48
 D,6 D,2 | G,2 E,2 ^F,2 D,2 |"^6" G,4 B,,2 C,2 | D,8 | D,,8 |"^11""^#10""^14" D,4 D,2 D,2 | G,,8 |] %55

